X: 186
T:Lady Niven Lumsden of Achindoir's Strathspey
B:William Marshall's Scottish Airs, Melodies, Strathspeys, Reels &c (1822)
C:William Marshall
L:1/8
M:C
O:Scotland
R:Slow Strathspey
Z:Clark Bernst + Richard Robinson
%%Page:22 - 2
F:http://richardrobinson.tunebook.org.uk/tune/4029
%%TBL:{"version":1,"type":"tune","id":"4029"}
K:Eb
%%staves {1 2}
V:1
"^Slowly"
{E}e2 (B>G) EBGE | C<FF>(G A/G/)F/E/ (E/D/)C/B,/ | \
{E}e2 B>G EBGE | ~C>F (E/D/C/)B,/ [G,E]2 [G,E]2 :|
{d}eeeg cfdB | eeeg BeGE | AcGB CFDB, | ~C>F (E/D/)(C/B,/) [G,E]2 [G,E]2 |
{d}eeeg cfdB | eeeg BeGE | A,cBG CFDB, | ~C>F (E/D/)(C/B,/) [G,E]2 [G,E]2 |]
V:2 middle=d clef=bass
L:1/4
eeee | AABB | eeee | ABee :| \
eeab | eeeg | agAB | ABEE | eeab | eee[Gg] | AGAB | ABEE |]

